X:1
T:Behold the Lamb
T:Behold the Lamb
T:Daniel Auber (1782–1871)
T:Public Domain Courtesy of the Cyber Hymnal™
C:Daniel Auber (1782–1871)
Z:Public Domain
Z:Courtesy of the Cyber Hymnal™
%%score ( 1 2 ) ( 3 4 )
L:1/8
Q:1/4=110
M:9/8
K:F
V:1 treble 
V:2 treble 
V:3 bass 
V:4 bass 
V:1
|: [Ec]2 [GB] | [FA]2 [FA] [FA]2 [FA] AB[Fc] | d3 c3 ([Ac][GB][FA]) | [EG]3 [DB]3 [CA]2 [B,G] | %4
 [A,F]3- [A,F]2 z :| x9 |: [Ac]3 | [Ac][GB][FA] [EG]3 [Bd]3 | [Bd][Ac][GB] [FA]2 z :| F2 G | %10
 [FA]2 [FA] [FA]2 [FA] AB[Fc] | d3 c3 [Ac][GB][FA] | [EG]3 [DB]3 [CA]2 [B,G] | [A,F]3- [A,F]2 z |] %14
V:2
|: x3 | x6 F2 x | F6 x3 | x9 | x6 :| x9 |: x3 | x9 | x6 :| C3 | x6 F2 x | F6 x3 | x9 | x6 |] %14
V:3
|: [C,C]3 | [F,C]3 [F,C]3 C2 [A,C] | B,3 [F,A,]3 [F,C]2 [F,C] | (CE,F,) G,2 F, [C,E,]2 [C,E,] | %4
 [F,,F,]3- [F,,F,]2 z :| x9 |: [F,C]3 | [C,C]2 [C,C] [C,C]3 [C,C]3 | C2 [E,C] [F,C]2 z :| A,2 B, | %10
 [F,C]3 [F,C]3 C2 [A,C] | B,3 [F,A,]3 [F,C]2 [F,C] | CE,F, G,2 F, [C,E,]2 [C,E,] | %13
 [F,,C,F,]3- [F,,C,F,]2 z |] %14
V:4
|: x3 | x6 F,G, x | B,3 x6 | C,6 x3 | x6 :| x9 |: x3 | x9 | C,D, x4 :| F,3 | x6 F,G, x | B,3 x6 | %12
 C,6 x3 | x6 |] %14

